Newaita-dark/.DP/32/weather-storm.svg

<svg xmlns="http://www.w3.org/2000/svg" xmlns:xlink="http://www.w3.org/1999/xlink" width="32px" height="32px" viewBox="0 0 32 32" version="1.1">
<defs>
<linearGradient id="linear0" gradientUnits="userSpaceOnUse" x1="232.832993" y1="222.917007" x2="232.832993" y2="48.292" >
<stop offset="0" style="stop-color:rgb(100%,79.215688%,15.686275%);stop-opacity:1;"/>
<stop offset="1" style="stop-color:rgb(100%,83.529413%,30.980393%);stop-opacity:1;"/>
</linearGradient>
<linearGradient id="linear1" gradientUnits="userSpaceOnUse" x1="960" y1="1695.118042" x2="960" y2="815.117981" gradientTransform="matrix(0.01654,0,0,0.01654,0,-10.434)">
<stop offset="0" style="stop-color:rgb(47.058824%,56.470591%,61.176473%);stop-opacity:1;"/>
<stop offset="1" style="stop-color:rgb(56.470591%,64.313728%,68.235296%);stop-opacity:1;"/>
</linearGradient>
<radialGradient id="radial0" gradientUnits="userSpaceOnUse" cx="450.908997" cy="189.578995" fx="450.908997" fy="189.578995" r="21.167" gradientTransform="matrix(0,-0.07814,-0.14064,0,40.883999,62.933998)">
<stop offset="0" style="stop-color:rgb(0%,0%,0%);stop-opacity:0.314;"/>
<stop offset="0.222" style="stop-color:rgb(0%,0%,0%);stop-opacity:0.275;"/>
<stop offset="1" style="stop-color:rgb(0%,0%,0%);stop-opacity:0;"/>
</radialGradient>
<radialGradient id="radial1" gradientUnits="userSpaceOnUse" cx="450.908997" cy="189.578995" fx="450.908997" fy="189.578995" r="21.167" gradientTransform="matrix(0,0.07814,0.14064,0,-11.778,-8.19)">
<stop offset="0" style="stop-color:rgb(0%,0%,0%);stop-opacity:0.314;"/>
<stop offset="0.222" style="stop-color:rgb(0%,0%,0%);stop-opacity:0.275;"/>
<stop offset="1" style="stop-color:rgb(0%,0%,0%);stop-opacity:0;"/>
</radialGradient>
<radialGradient id="radial2" gradientUnits="userSpaceOnUse" cx="450.908997" cy="189.578995" fx="450.908997" fy="189.578995" r="21.167" gradientTransform="matrix(0,-0.07814,0.14064,0,-11.778,62.933998)">
<stop offset="0" style="stop-color:rgb(0%,0%,0%);stop-opacity:0.314;"/>
<stop offset="0.222" style="stop-color:rgb(0%,0%,0%);stop-opacity:0.275;"/>
<stop offset="1" style="stop-color:rgb(0%,0%,0%);stop-opacity:0;"/>
</radialGradient>
<radialGradient id="radial3" gradientUnits="userSpaceOnUse" cx="450.908997" cy="189.578995" fx="450.908997" fy="189.578995" r="21.167" gradientTransform="matrix(0,0.07814,-0.14064,0,40.883999,-8.19)">
<stop offset="0" style="stop-color:rgb(0%,0%,0%);stop-opacity:0.314;"/>
<stop offset="0.222" style="stop-color:rgb(0%,0%,0%);stop-opacity:0.275;"/>
<stop offset="1" style="stop-color:rgb(0%,0%,0%);stop-opacity:0;"/>
</radialGradient>
</defs>
<g id="surface1">
<path style="fill-rule:nonzero;fill:url(#linear0);stroke-width:3;stroke-linecap:square;stroke-linejoin:round;stroke:rgb(12.941177%,12.941177%,12.941177%);stroke-opacity:1;stroke-miterlimit:4;" d="M 248.75 53.585007 C 245.375 53.460007 242 55.085007 239.875 58.085007 L 188.25 131.835007 C 186 134.960007 185.75 138.960007 187.375 142.335007 C 188.875 146.210007 192.75 148.835007 197.125 148.835007 L 266.5 148.835007 L 226.625 205.835007 C 223.25 210.710007 224.5 217.210007 229.25 220.585007 C 234 223.960007 240.625 222.835007 244 217.960007 L 294.5 145.835007 C 296.5 143.960007 297.75 141.335007 297.75 138.335007 C 297.75 133.335007 294.25 129.210007 289.75 128.085007 C 288.375 127.710007 287.125 127.585007 285.875 127.710007 L 217 127.710007 L 257.25 70.210007 C 260.625 65.460007 259.375 58.835007 254.625 55.460007 C 252.875 54.210007 250.875 53.585007 248.75 53.585007 Z M 248.75 53.585007 " transform="matrix(0.0625,0,0,0.0625,0,13.44)"/>
<path style=" stroke:none;fill-rule:nonzero;fill:url(#linear1);" d="M 21.828125 3.046875 C 19.023438 3.039062 16.460938 4.65625 15.257812 7.195312 C 12.640625 6.484375 9.914062 7.882812 8.945312 10.414062 C 8.273438 9.921875 7.453125 9.664062 6.617188 9.664062 C 5.5625 9.65625 4.554688 10.078125 3.8125 10.820312 C 3.0625 11.5625 2.648438 12.578125 2.648438 13.632812 C 2.648438 14.765625 3.132812 15.851562 3.984375 16.609375 C 4.835938 17.359375 5.96875 17.710938 7.09375 17.570312 C 7.15625 17.59375 7.210938 17.601562 7.273438 17.601562 L 21.828125 17.601562 C 23.765625 17.601562 25.617188 16.835938 26.984375 15.476562 C 28.34375 14.109375 29.109375 12.25 29.109375 10.320312 C 29.117188 8.390625 28.351562 6.539062 26.984375 5.171875 C 25.617188 3.804688 23.757812 3.039062 21.828125 3.046875 Z M 21.828125 3.046875 "/>
<path style=" stroke:none;fill-rule:nonzero;fill:rgb(100%,100%,100%);fill-opacity:0.392;" d="M 21.828125 3.046875 C 19.023438 3.039062 16.460938 4.65625 15.257812 7.195312 C 12.640625 6.484375 9.914062 7.882812 8.945312 10.414062 C 8.273438 9.921875 7.453125 9.664062 6.617188 9.664062 C 5.5625 9.65625 4.554688 10.078125 3.8125 10.820312 C 3.0625 11.5625 2.648438 12.578125 2.648438 13.632812 L 2.648438 13.796875 C 2.734375 11.664062 4.484375 9.984375 6.617188 9.992188 C 7.453125 9.992188 8.265625 10.257812 8.945312 10.742188 C 9.914062 8.210938 12.640625 6.820312 15.257812 7.523438 C 16.460938 4.984375 19.023438 3.367188 21.828125 3.375 C 25.789062 3.367188 29.03125 6.53125 29.101562 10.492188 C 29.109375 10.4375 29.109375 10.382812 29.109375 10.320312 C 29.117188 8.390625 28.351562 6.539062 26.984375 5.171875 C 25.617188 3.804688 23.765625 3.039062 21.828125 3.046875 Z M 21.828125 3.046875 "/>
<path style=" stroke:none;fill-rule:nonzero;fill:rgb(0%,0%,0%);fill-opacity:0.235;" d="M 29.101562 10.171875 C 29.03125 14.132812 25.789062 17.304688 21.828125 17.296875 L 7.273438 17.296875 C 7.210938 17.296875 7.15625 17.289062 7.09375 17.273438 C 6.9375 17.289062 6.773438 17.296875 6.617188 17.296875 C 4.484375 17.304688 2.726562 15.617188 2.648438 13.484375 L 2.648438 13.632812 C 2.648438 14.765625 3.132812 15.851562 3.984375 16.609375 C 4.835938 17.359375 5.96875 17.710938 7.09375 17.570312 C 7.148438 17.59375 7.210938 17.601562 7.273438 17.601562 L 21.828125 17.601562 C 23.757812 17.601562 25.617188 16.835938 26.976562 15.476562 C 28.34375 14.109375 29.109375 12.25 29.109375 10.320312 C 29.109375 10.273438 29.109375 10.226562 29.101562 10.171875 Z M 29.101562 10.171875 "/>
<path style="fill:none;stroke-width:0.09375;stroke-linecap:round;stroke-linejoin:miter;stroke:rgb(12.941177%,12.941177%,12.941177%);stroke-opacity:1;stroke-miterlimit:4;" d="M 10.914062 1.523438 C 9.511719 1.519531 8.230469 2.328125 7.628906 3.597656 C 6.320312 3.242188 4.957031 3.941406 4.472656 5.207031 C 4.136719 4.960938 3.726562 4.832031 3.308594 4.832031 C 2.78125 4.828125 2.277344 5.039062 1.90625 5.410156 C 1.53125 5.78125 1.324219 6.289062 1.324219 6.816406 C 1.324219 7.382812 1.566406 7.925781 1.992188 8.304688 C 2.417969 8.679688 2.984375 8.855469 3.546875 8.785156 C 3.578125 8.796875 3.605469 8.800781 3.636719 8.800781 L 10.914062 8.800781 C 11.882812 8.800781 12.808594 8.417969 13.492188 7.738281 C 14.171875 7.054688 14.554688 6.125 14.554688 5.160156 C 14.558594 4.195312 14.175781 3.269531 13.492188 2.585938 C 12.808594 1.902344 11.878906 1.519531 10.914062 1.523438 Z M 10.914062 1.523438 " transform="matrix(2,0,0,2,0,0)"/>
<path style=" stroke:none;fill-rule:nonzero;fill:url(#radial0);" d="M 14.554688 27.375 L 17.203125 27.375 L 17.203125 26.046875 L 14.554688 26.046875 Z M 14.554688 27.375 "/>
<path style=" stroke:none;fill-rule:nonzero;fill:url(#radial1);" d="M 14.554688 27.375 L 11.90625 27.375 L 11.90625 28.695312 L 14.554688 28.695312 Z M 14.554688 27.375 "/>
<path style=" stroke:none;fill-rule:nonzero;fill:url(#radial2);" d="M 14.554688 27.375 L 11.90625 27.375 L 11.90625 26.046875 L 14.554688 26.046875 Z M 14.554688 27.375 "/>
<path style=" stroke:none;fill-rule:nonzero;fill:url(#radial3);" d="M 14.554688 27.375 L 17.203125 27.375 L 17.203125 28.695312 L 14.554688 28.695312 Z M 14.554688 27.375 "/>
</g>
</svg>

<svg xmlns="http://www.w3.org/2000/svg" width="32pt" height="32pt" viewBox="0 0 32 32"><defs><linearGradient id="a" gradientUnits="userSpaceOnUse" x1="232.833" y1="222.917" x2="232.833" y2="48.292"><stop offset="0" stop-color="#ffca28"/><stop offset="1" stop-color="#ffd54f"/></linearGradient><linearGradient id="b" gradientUnits="userSpaceOnUse" x1="960" y1="1695.118" x2="960" y2="815.118" gradientTransform="matrix(.01654 0 0 .01654 0 -10.433)"><stop offset="0" stop-color="#78909c"/><stop offset="1" stop-color="#90a4ae"/></linearGradient><radialGradient id="c" gradientUnits="userSpaceOnUse" cx="450.909" cy="189.579" fx="450.909" fy="189.579" r="21.167" gradientTransform="matrix(0 -.07813 -.14064 0 40.885 62.934)"><stop offset="0" stop-opacity=".314"/><stop offset=".222" stop-opacity=".275"/><stop offset="1" stop-opacity="0"/></radialGradient><radialGradient id="d" gradientUnits="userSpaceOnUse" cx="450.909" cy="189.579" fx="450.909" fy="189.579" r="21.167" gradientTransform="matrix(0 .07813 .14064 0 -11.778 -8.189)"><stop offset="0" stop-opacity=".314"/><stop offset=".222" stop-opacity=".275"/><stop offset="1" stop-opacity="0"/></radialGradient><radialGradient id="e" gradientUnits="userSpaceOnUse" cx="450.909" cy="189.579" fx="450.909" fy="189.579" r="21.167" gradientTransform="matrix(0 -.07813 .14064 0 -11.778 62.934)"><stop offset="0" stop-opacity=".314"/><stop offset=".222" stop-opacity=".275"/><stop offset="1" stop-opacity="0"/></radialGradient><radialGradient id="f" gradientUnits="userSpaceOnUse" cx="450.909" cy="189.579" fx="450.909" fy="189.579" r="21.167" gradientTransform="matrix(0 .07813 -.14064 0 40.885 -8.189)"><stop offset="0" stop-opacity=".314"/><stop offset=".222" stop-opacity=".275"/><stop offset="1" stop-opacity="0"/></radialGradient></defs><path d="M248.726 53.6c-3.437-.063-6.75 1.5-8.874 4.499l-51.62 73.68c-2.25 3.25-2.437 7.25-.937 10.562 1.624 3.812 5.374 6.562 9.811 6.562h69.431l-39.934 56.994c-3.374 4.812-2.187 11.374 2.625 14.749 4.812 3.312 11.374 2.187 14.749-2.625l50.495-72.118c1.937-1.937 3.187-4.625 3.187-7.624 0-4.937-3.375-9.062-8-10.25-1.249-.312-2.561-.437-3.811-.312h-68.869l40.246-57.494c3.313-4.75 2.188-11.374-2.624-14.749-1.813-1.25-3.875-1.875-5.875-1.875zm0 0" transform="matrix(.0625 0 0 .0625 0 13.439)" fill="url(#a)" stroke-width="3" stroke-linecap="square" stroke-linejoin="round" stroke="#212121"/><path d="M21.832 3.047a7.269 7.269 0 0 0-6.578 4.144 5.388 5.388 0 0 0-1.363-.175 5.284 5.284 0 0 0-4.946 3.398 3.956 3.956 0 0 0-2.332-.75 3.962 3.962 0 0 0-3.968 3.969 3.962 3.962 0 0 0 4.453 3.937.56.56 0 0 0 .18.032h14.554a7.259 7.259 0 0 0 7.273-7.278 7.259 7.259 0 0 0-7.273-7.277zm0 0" fill="url(#b)"/><path d="M21.832 3.047a7.269 7.269 0 0 0-6.578 4.144 5.388 5.388 0 0 0-1.363-.175 5.284 5.284 0 0 0-4.946 3.398 3.956 3.956 0 0 0-2.332-.75 3.962 3.962 0 0 0-3.968 3.969c0 .055.003.11.003.164a3.962 3.962 0 0 1 3.965-3.805c.875 0 1.68.281 2.332.754a5.284 5.284 0 0 1 4.946-3.398c.472 0 .93.062 1.363.175a7.262 7.262 0 0 1 6.578-4.144 7.26 7.26 0 0 1 7.273 7.11v-.165a7.259 7.259 0 0 0-7.273-7.277zm0 0" fill="#fff" fill-opacity=".392"/><path d="M29.105 10.172a7.257 7.257 0 0 1-7.273 7.125H7.277a.557.557 0 0 1-.18-.027c-.156.02-.32.027-.484.027a3.959 3.959 0 0 1-3.965-3.817l-.003.153a3.962 3.962 0 0 0 4.453 3.937.56.56 0 0 0 .18.032h14.554a7.259 7.259 0 0 0 7.273-7.278v-.152zm0 0" fill-opacity=".235"/><path d="M21.832 3.047a7.269 7.269 0 0 0-6.578 4.144 5.388 5.388 0 0 0-1.363-.175 5.284 5.284 0 0 0-4.946 3.398 3.956 3.956 0 0 0-2.332-.75 3.962 3.962 0 0 0-3.968 3.969 3.962 3.962 0 0 0 4.453 3.937.56.56 0 0 0 .18.032h14.554a7.259 7.259 0 0 0 7.273-7.278 7.259 7.259 0 0 0-7.273-7.277zm0 0" fill="none" stroke-width=".18752999999999997" stroke-linecap="round" stroke="#212121"/><path d="M14.555 27.371h2.644v-1.32h-2.644zm0 0" fill="url(#c)"/><path d="M14.555 27.371h-2.649v1.324h2.649zm0 0" fill="url(#d)"/><path d="M14.555 27.371h-2.649v-1.32h2.649zm0 0" fill="url(#e)"/><path d="M14.555 27.371h2.644v1.324h-2.644zm0 0" fill="url(#f)"/></svg>
